X:900
T:Helen Scott of Humbie
C:Joe Buchanan's Scottish Tome - Page 488.0
I:488 0
Z:Carl Allison
R:Waltz
L:1/8
M:3/4
K:G
uD2 | "G"G3 A2 Bd | "C"e4 "G"(dB) | "D7"A2> B2 "C"G2 | "G"G4 (Bd) |
"C"e2> d2 e<g | "G"(B2> A2) G2 | "Am"A6- | A4 (Bd) |
"C"e2> d2 e<g | "G"B4 (dB) | "Am"A2 "Em"(B2> G2) | "C"E2 "D"D2 DE |
"G"G2> e2 de | "G"B2 "D"(A2> B2) | "C"G4 G2 | "G"G4 D2 |
"G"G2> e2 de | "Em"B2> e2 de | "G"G2 (B2> G2) | "C"E2 "D"D2 DE |
"G"G2> e2 de | "Em"B2> A2 "G"Bd | "Em"e2> f2 ed | e4 (ef) |
"C"g2> f2 eg | "G"B4 (dB) | "Am"A2 "Em"(B2> G2) | "C"E2 "D"D2 DE |
"C"G2 e3 d/e/ | "G"B2 "D"A2> B2 | "C"G4 G2 | "G"G4 |]

